_editor/libs/builder/icons/file-manager-layout.svg

<svg viewBox="0 -64 512 512" xmlns="http://www.w3.org/2000/svg"><path d="m63.633-5.914h394.856v394.857h-394.856v-376.909zm24.677 22.435v349.002h167.335v-349.002zm190.698 0v351.183h156.08v-351.183z" fill="#4d4d4d" stroke-width="1.12175"/><path d="m88.311 109.535v-93.014h167.335v186.029h-167.335z" fill="#808080" fill-opacity=".333333" stroke-width=".923722"/></svg>

<svg viewBox="0 -64 512 512" xmlns="http://www.w3.org/2000/svg"><path d="M63.633-5.914h394.856v394.857H63.633V12.034ZM88.31 16.521v349.002h167.335V16.521Zm190.698 0v351.183h156.08V16.521Z" fill="#4d4d4d" style="stroke-width:1.12175"/><path d="M88.311 109.535V16.521h167.335V202.55H88.311Z" fill="gray" fill-opacity=".329" style="fill:gray;fill-opacity:.33333334;stroke-width:.923722"/></svg>
